X: 1

T: Crazy Harp-Ozzy-Cyrano of Meneldor
C: Cyrano of Meneldor

M: 4/4

L: 1/8

Q:1/4=135

K:G

z8|EE z6|GG z2 DD z2|

EE z6|CC z2 DD z2|EE z6|GG z2 DD z2|

EE z6|CC z2 DD z2|
EE BE CE BE|AG FG AG FD|

EE BE CE BE|AG FG AG FD|EE BE CE BE|AG FG AG FD|

EE BE CE BA|=C4 D4|